X: 159
%
U:~=!turn!
T: Dunnechan
C:
O:Scotland
B:Keith Norman MacDonald : "The Skye collection of the best reels & strathspeys extant" : 1887
Z:Ralph Palmer
R:Reel
M:C|
L:1/8
K:D
A | F2 DF (AB)AG | F2 DF (GE)EA | F2 (DF) (AB)AF | A,CEG FDDA |
F2 DF (AB)AG | F2 DF (GE)EA | F2 DF ABAF | Adde fdd ||
f | Adfd gefd | Adfd ceef | Adfd gefd | Adeg fddf |
Adfd gefd | Adfd ceeg | faeg dfBd | Aceg fdd |]
W:From Peter Milnes Collection.


